icons/fill-new-ohter-like-thumb-up.svg

<svg xmlns="http://www.w3.org/2000/svg" width="32px" height="32px" viewBox="0 0 32 32" version="1.1">
    <title>fill-new-ohter-like-thumb-up</title>
    <g id="fill-new-ohter-like-thumb-up" stroke-width="1" fill-rule="evenodd">
        <path d="M3,13 L8,13 L8,30 L3,30 C2.44771525,30 2,29.5522847 2,29 L2,14 C2,13.4477153 2.44771525,13 3,13 Z M10,30 L10,13 L14.1523702,1.9270127 C14.3449206,1.41354507 14.9150751,1.1509364 15.4304425,1.33834272 L17.3669723,2.04253536 C18.947729,2.617356 20,4.1196833 20,5.80170906 L20,12 L26.2781583,12 C28.4872973,12 30.2781583,13.790861 30.2781583,16 C30.2781583,16.2203234 30.259955,16.4402702 30.223734,16.6575959 L28.5570673,26.6575959 C28.2356087,28.5863478 26.5668483,30 24.6114916,30 L10,30 Z" id="&#24418;&#29366;" />
    </g>
</svg>

<svg xmlns="http://www.w3.org/2000/svg" viewBox="0 0 32 32"><path fill="currentColor" d="M3 13h5v17H3a1 1 0 0 1-1-1V14a1 1 0 0 1 1-1m7 17V13l4.152-11.073a1 1 0 0 1 1.278-.589l1.937.705A4 4 0 0 1 20 5.802V12h6.278a4 4 0 0 1 3.946 4.658l-1.667 10A4 4 0 0 1 24.611 30z"/></svg>
